!!!COM: Robert Schumann
!!!CNT: Deutsch
!!!TXO: Deutsch
!!!OTL: "Ro2selein, Ro2selein!"
!!!LYR: von der Neun
!!!OPR: Sechs Gesa2nge
!!!OPS: Op. 89
!!!ONM: No. 6
!!!ENC: Leigh VanHandel
!!!YOR: Schumann Lieder - Max Friedlaender, ed.,
!!!YOR: New York: C. F. Peters, Vol. 3
!!!ODT: 1850/
**kern	**silbe
*staff1	*
*clefG2	*
*k[]	*
*M3/4	*
*MM[Nicht schnell]	*
=1	=1
{8.ee	{Ro2-
16a	-se-
2a	-lein,
=2	=2
8.ee	Ro2-
16a	-se-
2a}	-lein!}
=3	=3
{[2a	{mu2s-
12a]	|
12b	-sen
12cc	denn
=4	=4
8.cc	Dor-
16b	-nen
2b}	sein?}
=5	=5
*k[f#c#g#]	*
2.r	.
=6	=6
2.r	.
=7	=7
{4.b	{Schlief
8b	am
8cc#	schatt'
8f#	gen
=8	=8
8.a	Ba2-
16g#	-che-
4g#	-lein
[4ff#	einst
=9	=9
8.ff#]	|
16ee	zu
8g#	su2s-
8a	-sem
8dd	Tra2u-
8cc#	-men
=10	=10
4b}	ein,}
4r	.
4r	.
=11	=11
4r	.
4r	.
{8.g#	{sah
16ee	in
=12	=12
4.dd#	gold-
8g#	-ner
8g#	Son-
8ee	-ne
=13	=13
4dd#}	Schein}
4r	.
4r	.
=14	=14
{8.dd#	{dor-
16a	-nen
8a	los
8a	ein
8.ddn	Ro2-
16ee	-se-
=15	=15
4cc#}	-lein,}
4r	.
4r	.
=16	=16
2.r	.
=17	=17
{8.ee	{pflu2ckt'
16b	es
8b	auch
8b	und
8a	ku2sst'
8g#	es
=18	=18
4f#	fein:
4ff#	"dorn-
8b	-lo-
8b	-ses
=19	=19
8.ff#	Ro2-
16ee	-se-
2ee}	-lein!"}
=20	=20
2.r	.
=21	=21
2.r	.
=22	=22
*k[]	*
4r	.
4r	.
{8cc	{Ich
8cc	er-
=23	=23
8.a	-wacht'
16b	und
4.cc	schau-
8g	-te
=24	=24
4ee}	drein:}
4r	.
4r	.
=25	=25
{8.b-	{"hatt'
16a	ich's
8a	doch!
8a	wo
8ee	mag
8cc#	es
=26	=26
4dd}	sein?"}
4r	.
{8a	{Rings
8dd	im
=27	=27
4.cc	wei-
8b	-ten
8a	Son-
8g	-nen-
=28	=28
4cc	-schein
4.a	stan-
8dd	den
=29	=29
4cc	nur
4b	Dorn-
8a	-ro2-
8g	-se-
=30	=30
2.ee}	-lein!}
=31	=31
*k[f#c#g#]	*
4r	.
{8cc#	{Und
8cc#	das
8ee	Ba2ch-
8a	-lein
=32	=32
8.f#	lach-
16g#	-te
4a}	mein:}
4r	.
=33	=33
{4ff#	{"Lass
4b	du
8cc#	nur
8a	dein
=34	=34
8.cc#	Tra2u-
16b	-men
4b}	sein!}
4r	.
=35	=35
{4.a	{merk
8a	dir's
4dd	fein,
=36	=36
4.cc#	merk
8cc#	dir's
4ff#}	fein,}
=37	=37
2.r	.
=38	=38
4r	.
{4ee	{Dorn-
8a	-ro2s-
8a	-lein
=39	=39
8.ff#	mu2s-
16dd	-sen
2cc#}	sein,}
=40	=40
{8.dd	{mu2s-
16b	-sen
2a}	sein!"}
==	==
*-	*-